X:72
T:Foes Allemand THO4.072, La
M:2/4
L:1/8
Z:vmp. Peter Dunk 2010/11.from a transcription by Fynn Titford-Mock 2007
B:Thompson's Compleat Collection of 200 Favourite Country Dances Volume IV.
Q:1/4=130
K:D
A|d2e2|(f/g/)f/g/ ag|f2{a/}gf/e/|d/c/d/e/ dA|\
d2e2|(f/g/)f/g/ ag|f2{a/}gf/e/|d3:|
|:!wedge!f(f/g/) fe|!wedge!d(d/e/) dA|B2c2|d/c/d/e/ dd|\
!wedge!f(f/g/) fe|!wedge!d(d/e/) dA|B2Tc2|d3:|
